packages/web-icons/svgs/coupon_1.svg

<svg viewBox="0 0 72 48" xmlns="http://www.w3.org/2000/svg" class="ridi_icon"><path d="M67 0H4.9C2.4 0 .5 2.1.5 4.4v39.1c0 2.5 2.1 4.4 4.4 4.4h62.2c2.5 0 4.4-2.1 4.4-4.4v-11c-1-.1-2.1-.4-2.8-.9-1-.6-1.9-1.3-2.7-2.2-1.5-1.8-2.1-4.1-1.8-6.4.3-2.8 2.1-5.2 4.4-6.5.9-.4 1.9-.9 2.8-.9V4.4C71.6 2.1 69.5 0 67 0zm-5.8 22.5c-.4 3.1.4 6.2 2.4 8.6 1.3 1.8 3.1 3 5 3.7v8.6c0 .4-.1.9-.4 1.2-.3.3-.8.4-1.2.4H56.4v-5.8h-3.1V45H4.9c-.4 0-.9-.1-1.2-.4-.1-.3-.3-.6-.3-1V4.4c0-.4.1-.9.4-1.2.3-.1.7-.4 1-.4h48.4V8h3.1V2.8H67c.4 0 .9.1 1.2.4.3.3.4.7.4 1.2V13c-3.9 1.5-6.8 5.2-7.4 9.5z"/><path d="M35 12.4L22.2 34.8l2.5 1.2 12.8-22.4zM24.9 23.9c.7-.3 1.3-.7 1.8-1.2.4-.4.9-1 1.2-1.8.3-.7.4-1.5.4-2.2 0-.7-.2-1.5-.4-2.3-.3-.7-.8-1.3-1.2-1.7-.4-.6-1-.9-1.8-1.2-.8-.3-1.5-.5-2.2-.5-.7 0-1.5.2-2.3.5-.7.1-1.3.6-1.8 1.2-.4.4-.9 1-1.2 1.8-.3.8-.4 1.4-.4 2.2 0 .8.1 1.5.4 2.2.3.7.7 1.3 1.2 1.8.4.6 1 .9 1.8 1.2.7.3 1.5.4 2.2.4.8.1 1.5 0 2.3-.4zm-5-5.2c0-.7.3-1.5.7-1.9.6-.5 1.3-.8 2.1-.8s1.5.3 1.9.7c.4.5.7 1.2.7 2s-.3 1.4-.7 1.9c-.4.5-1.2.7-1.9.7s-1.5-.3-2-.7c-.6-.5-.8-1-.8-1.9zm21.3 6.9c-.4-.4-1-.9-1.8-1.2-.7-.3-1.5-.4-2.2-.4-.7 0-1.5.1-2.2.4-.7.3-1.3.7-1.8 1.2-.4.4-.9 1-1.2 1.8-.3.7-.4 1.5-.4 2.2 0 .7.1 1.5.4 2.2.3.7.7 1.3 1.2 1.8.4.4 1 .9 1.8 1.2.7.3 1.5.4 2.2.4.7 0 1.5-.1 2.2-.4.7-.3 1.3-.7 1.8-1.2.4-.4.9-1 1.2-1.8.3-.7.4-1.5.4-2.2 0-.7-.1-1.5-.4-2.2-.2-.6-.6-1.2-1.2-1.8zm-2.1 6.1c-.4.4-1.2.7-1.9.7s-1.5-.3-1.9-.7c-.4-.4-.7-1.2-.7-1.9s.3-1.5.7-1.9c.4-.4 1.2-.7 1.9-.7s1.5.3 1.9.7c.4.4.7 1.2.7 1.9.2.7-.1 1.3-.7 1.9zm14.4-5.8v8.9h3.1v-8.9h-1.5zm0-13.3v8.9h3.1v-8.9h-1.5z"/></svg>

<?xml version="1.0" encoding="UTF-8"?>
<svg width="72px" height="48px" viewBox="0 0 72 48" version="1.1" xmlns="http://www.w3.org/2000/svg">
  <!-- Generator: Sketch 41.2 (35397) - http://www.bohemiancoding.com/sketch -->
  <title>coupon_1</title>
  <desc>Created with Sketch.</desc>
  <defs></defs>
  <g id="Page-1" stroke="none" stroke-width="1" fill="none" fill-rule="evenodd">
    <g id="coupon_1" fill="#444444">
      <g id="레이어_1">
        <path d="M67,0 L4.9,0 C2.4,0 0.5,2.1 0.5,4.4 L0.5,43.5 C0.5,46 2.6,47.9 4.9,47.9 L67.1,47.9 C69.6,47.9 71.5,45.8 71.5,43.5 L71.5,32.5 C70.5,32.4 69.4,32.1 68.7,31.6 C67.7,31 66.8,30.3 66,29.4 C64.5,27.6 63.9,25.3 64.2,23 C64.5,20.2 66.3,17.8 68.6,16.5 C69.5,16.1 70.5,15.6 71.4,15.6 L71.4,4.4 C71.6,2.1 69.5,0 67,0 L67,0 Z M61.2,22.5 C60.8,25.6 61.6,28.7 63.6,31.1 C64.9,32.9 66.7,34.1 68.6,34.8 L68.6,43.4 C68.6,43.8 68.5,44.3 68.2,44.6 C67.9,44.9 67.4,45 67,45 L56.4,45 L56.4,39.2 L53.3,39.2 L53.3,45 L4.9,45 C4.5,45 4,44.9 3.7,44.6 C3.6,44.3 3.4,44 3.4,43.6 L3.4,4.4 C3.4,4 3.5,3.5 3.8,3.2 C4.1,3.1 4.5,2.8 4.8,2.8 L53.2,2.8 L53.2,8 L56.3,8 L56.3,2.8 L67,2.8 C67.4,2.8 67.9,2.9 68.2,3.2 C68.5,3.5 68.6,3.9 68.6,4.4 L68.6,13 C64.7,14.5 61.8,18.2 61.2,22.5 L61.2,22.5 Z" id="Shape"></path>
        <polygon id="Shape" points="35 12.4 22.2 34.8 24.7 36 37.5 13.6"></polygon>
        <path d="M24.9,23.9 C25.6,23.6 26.2,23.2 26.7,22.7 C27.1,22.3 27.6,21.7 27.9,20.9 C28.2,20.2 28.3,19.4 28.3,18.7 C28.3,18 28.1,17.2 27.9,16.4 C27.6,15.7 27.1,15.1 26.7,14.7 C26.3,14.1 25.7,13.8 24.9,13.5 C24.1,13.2 23.4,13 22.7,13 C22,13 21.2,13.2 20.4,13.5 C19.7,13.6 19.1,14.1 18.6,14.7 C18.2,15.1 17.7,15.7 17.4,16.5 C17.1,17.3 17,17.9 17,18.7 C17,19.5 17.1,20.2 17.4,20.9 C17.7,21.6 18.1,22.2 18.6,22.7 C19,23.3 19.6,23.6 20.4,23.9 C21.1,24.2 21.9,24.3 22.6,24.3 C23.4,24.4 24.1,24.3 24.9,23.9 Z M19.9,18.7 C19.9,18 20.2,17.2 20.6,16.8 C21.2,16.3 21.9,16 22.7,16 C23.5,16 24.2,16.3 24.6,16.7 C25,17.2 25.3,17.9 25.3,18.7 C25.3,19.5 25,20.1 24.6,20.6 C24.2,21.1 23.4,21.3 22.7,21.3 C22,21.3 21.2,21 20.7,20.6 C20.1,20.1 19.9,19.6 19.9,18.7 Z" id="Shape"></path>
        <path d="M41.2,25.6 C40.8,25.2 40.2,24.7 39.4,24.4 C38.7,24.1 37.9,24 37.2,24 C36.5,24 35.7,24.1 35,24.4 C34.3,24.7 33.7,25.1 33.2,25.6 C32.8,26 32.3,26.6 32,27.4 C31.7,28.1 31.6,28.9 31.6,29.6 C31.6,30.3 31.7,31.1 32,31.8 C32.3,32.5 32.7,33.1 33.2,33.6 C33.6,34 34.2,34.5 35,34.8 C35.7,35.1 36.5,35.2 37.2,35.2 C37.9,35.2 38.7,35.1 39.4,34.8 C40.1,34.5 40.7,34.1 41.2,33.6 C41.6,33.2 42.1,32.6 42.4,31.8 C42.7,31.1 42.8,30.3 42.8,29.6 C42.8,28.9 42.7,28.1 42.4,27.4 C42.2,26.8 41.8,26.2 41.2,25.6 Z M39.1,31.7 C38.7,32.1 37.9,32.4 37.2,32.4 C36.5,32.4 35.7,32.1 35.3,31.7 C34.9,31.3 34.6,30.5 34.6,29.8 C34.6,29.1 34.9,28.3 35.3,27.9 C35.7,27.5 36.5,27.2 37.2,27.2 C37.9,27.2 38.7,27.5 39.1,27.9 C39.5,28.3 39.8,29.1 39.8,29.8 C40,30.5 39.7,31.1 39.1,31.7 Z" id="Shape"></path>
        <polygon id="Shape" points="53.5 25.9 53.5 34.8 56.6 34.8 56.6 25.9 55.1 25.9"></polygon>
        <polygon id="Shape" points="53.5 12.6 53.5 21.5 56.6 21.5 56.6 12.6 55.1 12.6"></polygon>
      </g>
    </g>
  </g>
</svg>
